X: 1353
T: Melûl Mahzun Şu Yerlerde
C: İsmail Hakkı Bey
O: Turkey
F: http://compmusic.upf.edu/node/140
N: hicazkar--kosma--sofyan--melin_mahzun--muallim_ismail_hakki_bey
N: makam= hicazkar
N: form= kosma
N: usul= sofyan = 4/4
M: 4/4
L: 1/16
K: C _1/4B _7/8e _7/8A ^f
Q: 1/4=78
%%MIDI tuningsystem comma53
_bc'b=a g2f2 e2d2 c2B2  | c2g2 f2g2 =a2f2 g4  | \
w:  ARANAĞME  |   | 
g=agf =e2f2 g4 c4  | 
w:   | 
c2g2 f2g2 =a2f2 g4  | _bc'b=a g2f2 e2d2 c2B2  | \
w:   |   | 
c2g2 f2g2 =a2f2 g4  | 
w:   | 
g=agf e2f2 g4 z4  | {c}=f2f4_2/4e2 f2g2 f2e2  | \
w:   |   | 
=fgf_2/4e f2a2 g2f2 _7/8e2d2  | 
w:   | 
cdcB c2e2 d2c2 B2c2  | d2e2 _1/4e2=f2 e2g2 f2z2  | \
w:   |   | 
=f2f4_2/4e2 f2g2 f2e2  | 
w:   | 
=fgf_2/4e f2a2 g2f2 _7/8e2d2  | cdcB c2e2 d2c2 B2A2  | \
w:   |   | 
G2c4B2 BAAG G4  | 
w:   | 
g4 g2g2 g4 g4  | f2f4g2 f3e d4  | z2=a2 g2f2 e2d2 e4  | \
w:  Ah  me lûl  mah zun   |  şu  yer *  ler *  de   |  du *  *  ru *  rum   | 
z2ef e2d2 cBc2 d4  | 
w:  du *  *  *  ru *  *  rum    | 
z2ef e2d2 c2B2 c4  | f2g=a g2f2 e3d c4  | \
w:  SAZ  |   | 
z2ef e2d2 c2B2 c4  | 
w:   | 
G2c2 B2c2 d2B2 c4  | g2z2 g2g2 g4 g4  | \
w:   |  *  Yâ rim  se ni   | 
f2f4g2 f3e d4  | z2=a2 g2f2 e2d2 e4  | 
w:  a rar  *  so *  rar   |  bu *  *  lu *  rum   | 
z2ef e2d2 cBc2 d4  | z2=ff f2_2/4e2 f2e2 f2e2  | \
w:  bu *  *  *  lu *  *  rum    |  SAZ  | 
=f2ga g2f2 fed2 e4  | 
w:   | 
z2ee e2d2 e2d2 e2d2  | d2ef e2d2 c2B2 c4  | \
w:   |   | 
c2c4d2 _2/4e2=f2 g4  | 
w:  Ka ba *  ha *  ti   | 
=f2a2 g2f2 e3d c4  | c2e2 d2c2 B2A2 B4  | \
w:  ben  *  gön *  lüm *  de   |  *  bu *  *  lu *  rum    | 
B2z2 A2G2 A2B2 G4  | 
w:  *  bu *  lu *  rum    | 
g2a2 g2=f2 _2/4e2f2 g2a2  | g2a4g2 a2g2 a2z2  | \
w:  SAZ  |   | 
g2ab a2g2 =f2_2/4e2 d2c2  | 
w:   | 
ag=f2 _2/4e2d2 e2f2 g4  | a2z2 a2a2 a4 a4  | \
w:   |  *  Sa bah_ ol sun   | 
g2a4g2 a2g2 a4  | z2ab a2g2 =f2e2 d2c2  | 
w:  so ra *  yım  *  ben   |  bi *  *  *  ri *  ne   | 
z2_2/4e=f e2d2 e2f2 g4  | a2z2 a2a2 a4 a4  | \
w:  bi *  *  *  ri *  ne    |  *  Çok_ a ra dım   | 
g4 a2g2 a2g2 a4  | z2ab a2g2 =f2e2 d2c2  | 
w:  geç me *  di  *  yâr   |  e *  *  *  li *  me   | 
z2_2/4e=f e2d2 e2f2 g4  | g2a2 =f2a2 g2a2 f2a2  | \
w:  e *  *  *  li *  me    |  SAZ  | 
g2z2 g2z2 =f2_3/4e2 d2c2  | 
w:   | 
g2a2 =f2a2 g2a2 f2a2  | g2z2 g2z2 c2z2 c2z2  | \
w:   |   | 
g2a2 =f2a2 g2a2 f2a2  | 
w:  SAZ  | 
g2z2 g2z2 =f2_3/4e2 d2c2  | g2a2 =f2a2 g2a2 f2a2  | \
w:   |   | 
g2z2 g2z2 c2z2 c2z2  | 
w:   | 
z4 =f2f2 f3_2/4e f4  | _2/4e2=f4_1/4e2 _7/8e4 e4  | \
w:  Ol maz  sev *  di  |  ğim_ ol *  maz  se  | 
e2e4d2 c4 e3d  | d6c2 B3A G4  | 
w:  ni  gö *  ren  doy  |  maz    | 
z4 B2c2 B3A G4  | z2c4e2 d3c B4  | A3G A2B2 G4 z4  | |


